X:335
T: Ship in Full Sail
M: 6/8
L: 1/8
R: Jig
K: G
E|DGG BAG|dBG GBd|edg dBG|AGA BGE|
DGG BAG|dBG GBd|edg dBG|AGE G2 :|
B|dgg bgg|aga bge|dgg bgg|aba age|
dgg bgg|aga bgd|edg dBG|AGE G2 :|
